img/t3.svg

<svg width="27" height="23" viewBox="0 0 27 23" fill="none" xmlns="http://www.w3.org/2000/svg">
<path d="M10.1875 13.0312C12.8281 13.0312 14.9688 10.8906 14.9688 8.25C14.9688 5.60939 12.8281 3.46875 10.1875 3.46875C7.54689 3.46875 5.40625 5.60939 5.40625 8.25C5.40625 10.8906 7.54689 13.0312 10.1875 13.0312Z" fill="url(#paint0_linear)"/>
<path d="M19.4711 18.0055C14.0922 13.4904 6.28122 13.4904 0.902312 18.0055C0.727 18.1537 0.625 18.3736 0.625 18.6047V20.8057C0.625 21.8831 1.339 22.5939 2.21875 22.5939H18.1562C19.036 22.5939 19.75 21.8831 19.75 21.0017V18.8374C19.75 18.3736 19.648 18.1537 19.4711 18.0055Z" fill="url(#paint1_linear)"/>
<path d="M16.5625 8.25C16.5625 8.79347 16.4924 9.321 16.3633 9.82303C16.4318 9.82622 16.494 9.84375 16.5625 9.84375C19.1986 9.84375 21.3437 7.69856 21.3437 5.0625C21.3437 2.42644 19.1986 0.28125 16.5625 0.28125C14.9273 0.28125 13.485 1.10841 12.6227 2.36269C14.9321 3.32212 16.5625 5.598 16.5625 8.25Z" fill="url(#paint2_linear)"/>
<path d="M25.8461 14.8178C22.9136 12.357 19.2591 11.2478 15.67 11.4709C15.2046 12.2534 14.5847 12.9355 13.8404 13.4599C16.2485 14.0241 18.5563 15.1397 20.5549 16.8323C21.0712 17.2689 21.3438 17.9335 21.3438 18.6093V19.4062H24.5313C25.411 19.4062 26.125 18.6922 26.125 17.8124V15.4218C26.125 15.1907 26.023 14.966 25.8461 14.8178Z" fill="url(#paint3_linear)"/>
<defs>
<linearGradient id="paint0_linear" x1="5.38727" y1="3.42736" x2="12.9795" y2="12.4747" gradientUnits="userSpaceOnUse">
<stop stop-color="#FECA52"/>
<stop offset="0.515625" stop-color="#FFCE5F"/>
<stop offset="1" stop-color="#FF644E"/>
</linearGradient>
<linearGradient id="paint1_linear" x1="0.587049" y1="14.5846" x2="4.59555" y2="26.0403" gradientUnits="userSpaceOnUse">
<stop stop-color="#FECA52"/>
<stop offset="0.515625" stop-color="#FFCE5F"/>
<stop offset="1" stop-color="#FF644E"/>
</linearGradient>
<linearGradient id="paint2_linear" x1="12.6054" y1="0.239857" x2="20.288" y2="8.58931" gradientUnits="userSpaceOnUse">
<stop stop-color="#FECA52"/>
<stop offset="0.515625" stop-color="#FFCE5F"/>
<stop offset="1" stop-color="#FF644E"/>
</linearGradient>
<linearGradient id="paint3_linear" x1="13.816" y1="11.4084" x2="19.2057" y2="21.3165" gradientUnits="userSpaceOnUse">
<stop stop-color="#FECA52"/>
<stop offset="0.515625" stop-color="#FFCE5F"/>
<stop offset="1" stop-color="#FF644E"/>
</linearGradient>
</defs>
</svg>

<svg width="27" height="23" viewBox="0 0 27 23" fill="none" xmlns="http://www.w3.org/2000/svg"><path d="M10.188 13.031a4.781 4.781 0 1 0 0-9.562 4.781 4.781 0 0 0 0 9.562z" fill="url(#a)"/><path d="M19.471 18.006a14.42 14.42 0 0 0-18.569 0 .786.786 0 0 0-.277.599v2.2c0 1.078.714 1.789 1.594 1.789h15.937c.88 0 1.594-.71 1.594-1.592v-2.165c0-.463-.102-.683-.279-.831z" fill="url(#b)"/><path d="M16.563 8.25c0 .543-.07 1.071-.2 1.573.069.003.131.02.2.02a4.787 4.787 0 0 0 4.78-4.78A4.787 4.787 0 0 0 16.564.28a4.777 4.777 0 0 0-3.94 2.082c2.31.96 3.94 3.235 3.94 5.887z" fill="url(#c)"/><path d="M25.846 14.818A14.4 14.4 0 0 0 15.67 11.47a6.478 6.478 0 0 1-1.83 1.989 16.006 16.006 0 0 1 6.715 3.372c.516.437.789 1.101.789 1.777v.797h3.187c.88 0 1.594-.714 1.594-1.594v-2.39a.792.792 0 0 0-.279-.604z" fill="url(#d)"/><defs><linearGradient id="a" x1="5.387" y1="3.427" x2="12.979" y2="12.475" gradientUnits="userSpaceOnUse"><stop stop-color="#FECA52"/><stop offset=".516" stop-color="#FFCE5F"/><stop offset="1" stop-color="#FF644E"/></linearGradient><linearGradient id="b" x1=".587" y1="14.585" x2="4.596" y2="26.04" gradientUnits="userSpaceOnUse"><stop stop-color="#FECA52"/><stop offset=".516" stop-color="#FFCE5F"/><stop offset="1" stop-color="#FF644E"/></linearGradient><linearGradient id="c" x1="12.605" y1=".24" x2="20.288" y2="8.589" gradientUnits="userSpaceOnUse"><stop stop-color="#FECA52"/><stop offset=".516" stop-color="#FFCE5F"/><stop offset="1" stop-color="#FF644E"/></linearGradient><linearGradient id="d" x1="13.816" y1="11.408" x2="19.206" y2="21.317" gradientUnits="userSpaceOnUse"><stop stop-color="#FECA52"/><stop offset=".516" stop-color="#FFCE5F"/><stop offset="1" stop-color="#FF644E"/></linearGradient></defs></svg>
